(Created with GRBL post processor 2017/02/25 23:34)
(tool change to 6.35 mm End Mill)
T4 M06
G17 G90 G21
G00 Z5 S7000 M03
X0.825 Y0.825
Z2
G01 Z0.5 F50
X0.825 Y-0.824 F100
X-0.825 Y-0.824 
X-0.825 Y0.825 
X0.825 Y0.825 
X1.825 Y1.825 
X1.825 Y-1.824 
X-1.825 Y-1.824 
X-1.825 Y1.825 
X1.825 Y1.825 
X2.825 Y2.825 
X2.825 Y-2.824 
X-2.825 Y-2.824 
X-2.825 Y2.825 
X2.825 Y2.825 
X3.825 Y3.825 
X3.825 Y-3.824 
X-3.825 Y-3.824 
X-3.825 Y3.825 
X3.825 Y3.825 
X4.825 Y4.825 
X4.825 Y-4.824 
X-4.825 Y-4.824 
X-4.825 Y4.825 
X4.825 Y4.825 
X5.825 Y5.825 
X5.825 Y-5.824 
X-5.825 Y-5.824 
X-5.825 Y5.825 
X5.825 Y5.825 
X6.825 Y6.825 
X6.825 Y-6.824 
X-6.825 Y-6.824 
X-6.825 Y6.825 
X6.825 Y6.825 
X7.825 Y7.825 
X7.825 Y-7.824 
X-7.825 Y-7.824 
X-7.825 Y7.825 
X7.825 Y7.825 
X8.825 Y8.825 
X8.825 Y-8.824 
X-8.825 Y-8.824 
X-8.825 Y8.825 
X8.825 Y8.825 
X9.825 Y9.825 
X9.825 Y-9.824 
X-9.825 Y-9.824 
X-9.825 Y9.825 
X9.825 Y9.825 
X10.825 Y10.825 
X10.825 Y-10.824 
X-10.825 Y-10.824 
X-10.825 Y10.825 
X10.825 Y10.825 
X11.825 Y11.825 
X11.825 Y-11.824 
X-11.825 Y-11.824 
X-11.825 Y11.825 
X11.825 Y11.825 
X12.825 Y12.825 
X12.825 Y-12.824 
X-12.825 Y-12.824 
X-12.825 Y12.825 
X12.825 Y12.825 
X13.825 Y13.825 
X13.825 Y-13.824 
X-13.825 Y-13.824 
X-13.825 Y13.825 
X13.825 Y13.825 
X14.825 Y14.825 
X14.825 Y-14.824 
X-14.825 Y-14.824 
X-14.825 Y14.825 
X14.825 Y14.825 
X15.825 Y15.825 
X15.825 Y-15.824 
X-15.825 Y-15.824 
X-15.825 Y15.825 
X15.825 Y15.825 
X16.825 Y16.825 
X16.825 Y-16.824 
X-16.825 Y-16.824 
X-16.825 Y16.825 
X16.825 Y16.825 
X16.941 Y17.825 
G02 X17.825 Y16.941 I0.037 J-0.846 
G01 X17.825 Y-16.941 
G02 X16.942 Y-17.825 I-0.846 J-0.037 
G01 X-16.942 Y-17.825 
G02 X-17.825 Y-16.942 I-0.037 J0.845 
G01 X-17.825 Y16.94 
G02 X-16.934 Y17.825 I0.849 J0.036 
G01 X16.941 Y17.825 
X-16.982 Y18.825 
X16.99 Y18.825 
G02 X18.825 Y16.991 I0.004 J-1.83 
G01 X18.825 Y-16.99 
G02 X16.991 Y-18.825 I-1.83 J-0.004 
G01 X-16.991 Y-18.825 
G02 X-18.825 Y-16.991 I-0.003 J1.83 
G01 X-18.825 Y16.991 
G02 X-16.982 Y18.825 I1.831 J0.002 
G00 Z5
X12.804 Y12.804 S7000 M03
Z1.5
G01 Z-1 F50
G00 Z5
Z-1
G01 Z-1.5 
G00 Z5
Z-1.5
G01 Z-2 
G00 Z5
Z-2
G01 Z-2.5 
G00 Z5
Z-2.5
G01 Z-2.7 
G04 P2
G00 Z5
X-12.804 Y12.804
Z1.5
G01 Z-1 
G00 Z5
Z-1
G01 Z-1.5 
G00 Z5
Z-1.5
G01 Z-2 
G00 Z5
Z-2
G01 Z-2.5 
G00 Z5
Z-2.5
G01 Z-2.7 
G04 P2
G00 Z5
X-12.804 Y-12.804
Z1.5
G01 Z-1 
G00 Z5
Z-1
G01 Z-1.5 
G00 Z5
Z-1.5
G01 Z-2 
G00 Z5
Z-2
G01 Z-2.5 
G00 Z5
Z-2.5
G01 Z-2.7 
G04 P2
G00 Z5
X12.804 Y-12.804
Z1.5
G01 Z-1 
G00 Z5
Z-1
G01 Z-1.5 
G00 Z5
Z-1.5
G01 Z-2 
G00 Z5
Z-2
G01 Z-2.5 
G00 Z5
Z-2.5
G01 Z-2.7 
G04 P2
G00 Z5
X0.675 Y0.675 S7000 M03
Z1.5
G01 Z-1 
X0.675 Y-0.675 F100
X-0.675 Y-0.675 
X-0.675 Y0.675 
X0.675 Y0.675 
X1.675 Y1.675 
X1.675 Y-1.675 
X-1.675 Y-1.675 
X-1.675 Y1.675 
X1.675 Y1.675 
X2.675 Y2.675 
X2.675 Y-2.675 
X-2.675 Y-2.675 
X-2.675 Y2.675 
X2.675 Y2.675 
X3.675 Y3.675 
X3.675 Y-3.675 
X-3.675 Y-3.675 
X-3.675 Y3.675 
X3.675 Y3.675 
X4.675 Y4.675 
X4.675 Y-4.675 
X-4.675 Y-4.675 
X-4.675 Y4.675 
X4.675 Y4.675 
X5.675 Y5.675 
X5.675 Y-5.675 
X-5.675 Y-5.675 
X-5.675 Y5.675 
X5.675 Y5.675 
X6.675 Y6.675 
X6.675 Y-6.675 
X-6.675 Y-6.675 
X-6.675 Y6.675 
X6.675 Y6.675 
X7.675 Y7.675 
X7.675 Y-7.675 
X-7.675 Y-7.675 
X-7.675 Y7.675 
X7.675 Y7.675 
X8.675 Y8.675 
X8.675 Y-8.675 
X-8.675 Y-8.675 
X-8.675 Y8.675 
X8.675 Y8.675 
X9.675 Y9.675 
X9.675 Y-9.675 
X-9.675 Y-9.675 
X-9.675 Y9.675 
X9.675 Y9.675 
X10.675 Y10.675 
X10.675 Y-10.675 
X-10.675 Y-10.675 
X-10.675 Y10.675 
X10.675 Y10.675 
X11.675 Y11.675 
X11.675 Y-11.675 
X-11.675 Y-11.675 
X-11.675 Y11.675 
X11.675 Y11.675 
G00 Z5
X0.675 Y0.675
Z1
G01 Z-1.5 F50
X0.675 Y-0.675 F100
X-0.675 Y-0.675 
X-0.675 Y0.675 
X0.675 Y0.675 
X1.675 Y1.675 
X1.675 Y-1.675 
X-1.675 Y-1.675 
X-1.675 Y1.675 
X1.675 Y1.675 
X2.675 Y2.675 
X2.675 Y-2.675 
X-2.675 Y-2.675 
X-2.675 Y2.675 
X2.675 Y2.675 
X3.675 Y3.675 
X3.675 Y-3.675 
X-3.675 Y-3.675 
X-3.675 Y3.675 
X3.675 Y3.675 
X4.675 Y4.675 
X4.675 Y-4.675 
X-4.675 Y-4.675 
X-4.675 Y4.675 
X4.675 Y4.675 
X5.675 Y5.675 
X5.675 Y-5.675 
X-5.675 Y-5.675 
X-5.675 Y5.675 
X5.675 Y5.675 
X6.675 Y6.675 
X6.675 Y-6.675 
X-6.675 Y-6.675 
X-6.675 Y6.675 
X6.675 Y6.675 
X7.675 Y7.675 
X7.675 Y-7.675 
X-7.675 Y-7.675 
X-7.675 Y7.675 
X7.675 Y7.675 
X8.675 Y8.675 
X8.675 Y-8.675 
X-8.675 Y-8.675 
X-8.675 Y8.675 
X8.675 Y8.675 
X9.675 Y9.675 
X9.675 Y-9.675 
X-9.675 Y-9.675 
X-9.675 Y9.675 
X9.675 Y9.675 
X10.675 Y10.675 
X10.675 Y-10.675 
X-10.675 Y-10.675 
X-10.675 Y10.675 
X10.675 Y10.675 
X11.675 Y11.675 
X11.675 Y-11.675 
X-11.675 Y-11.675 
X-11.675 Y11.675 
X11.675 Y11.675 
G00 Z5
X0.675 Y0.675
Z0.5
G01 Z-2 F50
X0.675 Y-0.675 F100
X-0.675 Y-0.675 
X-0.675 Y0.675 
X0.675 Y0.675 
X1.675 Y1.675 
X1.675 Y-1.675 
X-1.675 Y-1.675 
X-1.675 Y1.675 
X1.675 Y1.675 
X2.675 Y2.675 
X2.675 Y-2.675 
X-2.675 Y-2.675 
X-2.675 Y2.675 
X2.675 Y2.675 
X3.675 Y3.675 
X3.675 Y-3.675 
X-3.675 Y-3.675 
X-3.675 Y3.675 
X3.675 Y3.675 
X4.675 Y4.675 
X4.675 Y-4.675 
X-4.675 Y-4.675 
X-4.675 Y4.675 
X4.675 Y4.675 
X5.675 Y5.675 
X5.675 Y-5.675 
X-5.675 Y-5.675 
X-5.675 Y5.675 
X5.675 Y5.675 
X6.675 Y6.675 
X6.675 Y-6.675 
X-6.675 Y-6.675 
X-6.675 Y6.675 
X6.675 Y6.675 
X7.675 Y7.675 
X7.675 Y-7.675 
X-7.675 Y-7.675 
X-7.675 Y7.675 
X7.675 Y7.675 
X8.675 Y8.675 
X8.675 Y-8.675 
X-8.675 Y-8.675 
X-8.675 Y8.675 
X8.675 Y8.675 
X9.675 Y9.675 
X9.675 Y-9.675 
X-9.675 Y-9.675 
X-9.675 Y9.675 
X9.675 Y9.675 
X10.675 Y10.675 
X10.675 Y-10.675 
X-10.675 Y-10.675 
X-10.675 Y10.675 
X10.675 Y10.675 
X11.675 Y11.675 
X11.675 Y-11.675 
X-11.675 Y-11.675 
X-11.675 Y11.675 
X11.675 Y11.675 
G00 Z5
X0.675 Y0.675
Z0
G01 Z-2.5 F50
X0.675 Y-0.675 F100
X-0.675 Y-0.675 
X-0.675 Y0.675 
X0.675 Y0.675 
X1.675 Y1.675 
X1.675 Y-1.675 
X-1.675 Y-1.675 
X-1.675 Y1.675 
X1.675 Y1.675 
X2.675 Y2.675 
X2.675 Y-2.675 
X-2.675 Y-2.675 
X-2.675 Y2.675 
X2.675 Y2.675 
X3.675 Y3.675 
X3.675 Y-3.675 
X-3.675 Y-3.675 
X-3.675 Y3.675 
X3.675 Y3.675 
X4.675 Y4.675 
X4.675 Y-4.675 
X-4.675 Y-4.675 
X-4.675 Y4.675 
X4.675 Y4.675 
X5.675 Y5.675 
X5.675 Y-5.675 
X-5.675 Y-5.675 
X-5.675 Y5.675 
X5.675 Y5.675 
X6.675 Y6.675 
X6.675 Y-6.675 
X-6.675 Y-6.675 
X-6.675 Y6.675 
X6.675 Y6.675 
X7.675 Y7.675 
X7.675 Y-7.675 
X-7.675 Y-7.675 
X-7.675 Y7.675 
X7.675 Y7.675 
X8.675 Y8.675 
X8.675 Y-8.675 
X-8.675 Y-8.675 
X-8.675 Y8.675 
X8.675 Y8.675 
X9.675 Y9.675 
X9.675 Y-9.675 
X-9.675 Y-9.675 
X-9.675 Y9.675 
X9.675 Y9.675 
X10.675 Y10.675 
X10.675 Y-10.675 
X-10.675 Y-10.675 
X-10.675 Y10.675 
X10.675 Y10.675 
X11.675 Y11.675 
X11.675 Y-11.675 
X-11.675 Y-11.675 
X-11.675 Y11.675 
X11.675 Y11.675 
G00 Z5
X0.675 Y0.675
Z-0.5
G01 Z-3 F50
X0.675 Y-0.675 F100
X-0.675 Y-0.675 
X-0.675 Y0.675 
X0.675 Y0.675 
X1.675 Y1.675 
X1.675 Y-1.675 
X-1.675 Y-1.675 
X-1.675 Y1.675 
X1.675 Y1.675 
X2.675 Y2.675 
X2.675 Y-2.675 
X-2.675 Y-2.675 
X-2.675 Y2.675 
X2.675 Y2.675 
X3.675 Y3.675 
X3.675 Y-3.675 
X-3.675 Y-3.675 
X-3.675 Y3.675 
X3.675 Y3.675 
X4.675 Y4.675 
X4.675 Y-4.675 
X-4.675 Y-4.675 
X-4.675 Y4.675 
X4.675 Y4.675 
X5.675 Y5.675 
X5.675 Y-5.675 
X-5.675 Y-5.675 
X-5.675 Y5.675 
X5.675 Y5.675 
X6.675 Y6.675 
X6.675 Y-6.675 
X-6.675 Y-6.675 
X-6.675 Y6.675 
X6.675 Y6.675 
X7.675 Y7.675 
X7.675 Y-7.675 
X-7.675 Y-7.675 
X-7.675 Y7.675 
X7.675 Y7.675 
X8.675 Y8.675 
X8.675 Y-8.675 
X-8.675 Y-8.675 
X-8.675 Y8.675 
X8.675 Y8.675 
X9.675 Y9.675 
X9.675 Y-9.675 
X-9.675 Y-9.675 
X-9.675 Y9.675 
X9.675 Y9.675 
X10.675 Y10.675 
X10.675 Y-10.675 
X-10.675 Y-10.675 
X-10.675 Y10.675 
X10.675 Y10.675 
X11.675 Y11.675 
X11.675 Y-11.675 
X-11.675 Y-11.675 
X-11.675 Y11.675 
X11.675 Y11.675 
G00 Z5
X0.675 Y0.675
Z-1
G01 Z-3.5 F50
X0.675 Y-0.675 F100
X-0.675 Y-0.675 
X-0.675 Y0.675 
X0.675 Y0.675 
X1.675 Y1.675 
X1.675 Y-1.675 
X-1.675 Y-1.675 
X-1.675 Y1.675 
X1.675 Y1.675 
X2.675 Y2.675 
X2.675 Y-2.675 
X-2.675 Y-2.675 
X-2.675 Y2.675 
X2.675 Y2.675 
X3.675 Y3.675 
X3.675 Y-3.675 
X-3.675 Y-3.675 
X-3.675 Y3.675 
X3.675 Y3.675 
X4.675 Y4.675 
X4.675 Y-4.675 
X-4.675 Y-4.675 
X-4.675 Y4.675 
X4.675 Y4.675 
X5.675 Y5.675 
X5.675 Y-5.675 
X-5.675 Y-5.675 
X-5.675 Y5.675 
X5.675 Y5.675 
X6.675 Y6.675 
X6.675 Y-6.675 
X-6.675 Y-6.675 
X-6.675 Y6.675 
X6.675 Y6.675 
X7.675 Y7.675 
X7.675 Y-7.675 
X-7.675 Y-7.675 
X-7.675 Y7.675 
X7.675 Y7.675 
X8.675 Y8.675 
X8.675 Y-8.675 
X-8.675 Y-8.675 
X-8.675 Y8.675 
X8.675 Y8.675 
X9.675 Y9.675 
X9.675 Y-9.675 
X-9.675 Y-9.675 
X-9.675 Y9.675 
X9.675 Y9.675 
X10.675 Y10.675 
X10.675 Y-10.675 
X-10.675 Y-10.675 
X-10.675 Y10.675 
X10.675 Y10.675 
X11.675 Y11.675 
X11.675 Y-11.675 
X-11.675 Y-11.675 
X-11.675 Y11.675 
X11.675 Y11.675 
G00 Z5
X0.675 Y0.675
Z-1.5
G01 Z-4 F50
X0.675 Y-0.675 F100
X-0.675 Y-0.675 
X-0.675 Y0.675 
X0.675 Y0.675 
X1.675 Y1.675 
X1.675 Y-1.675 
X-1.675 Y-1.675 
X-1.675 Y1.675 
X1.675 Y1.675 
X2.675 Y2.675 
X2.675 Y-2.675 
X-2.675 Y-2.675 
X-2.675 Y2.675 
X2.675 Y2.675 
X3.675 Y3.675 
X3.675 Y-3.675 
X-3.675 Y-3.675 
X-3.675 Y3.675 
X3.675 Y3.675 
X4.675 Y4.675 
X4.675 Y-4.675 
X-4.675 Y-4.675 
X-4.675 Y4.675 
X4.675 Y4.675 
X5.675 Y5.675 
X5.675 Y-5.675 
X-5.675 Y-5.675 
X-5.675 Y5.675 
X5.675 Y5.675 
X6.675 Y6.675 
X6.675 Y-6.675 
X-6.675 Y-6.675 
X-6.675 Y6.675 
X6.675 Y6.675 
X7.675 Y7.675 
X7.675 Y-7.675 
X-7.675 Y-7.675 
X-7.675 Y7.675 
X7.675 Y7.675 
X8.675 Y8.675 
X8.675 Y-8.675 
X-8.675 Y-8.675 
X-8.675 Y8.675 
X8.675 Y8.675 
X9.675 Y9.675 
X9.675 Y-9.675 
X-9.675 Y-9.675 
X-9.675 Y9.675 
X9.675 Y9.675 
X10.675 Y10.675 
X10.675 Y-10.675 
X-10.675 Y-10.675 
X-10.675 Y10.675 
X10.675 Y10.675 
X11.675 Y11.675 
X11.675 Y-11.675 
X-11.675 Y-11.675 
X-11.675 Y11.675 
X11.675 Y11.675 
G00 Z5
X0.675 Y0.675
Z-2
G01 Z-4.5 F50
X0.675 Y-0.675 F100
X-0.675 Y-0.675 
X-0.675 Y0.675 
X0.675 Y0.675 
X1.675 Y1.675 
X1.675 Y-1.675 
X-1.675 Y-1.675 
X-1.675 Y1.675 
X1.675 Y1.675 
X2.675 Y2.675 
X2.675 Y-2.675 
X-2.675 Y-2.675 
X-2.675 Y2.675 
X2.675 Y2.675 
X3.675 Y3.675 
X3.675 Y-3.675 
X-3.675 Y-3.675 
X-3.675 Y3.675 
X3.675 Y3.675 
X4.675 Y4.675 
X4.675 Y-4.675 
X-4.675 Y-4.675 
X-4.675 Y4.675 
X4.675 Y4.675 
X5.675 Y5.675 
X5.675 Y-5.675 
X-5.675 Y-5.675 
X-5.675 Y5.675 
X5.675 Y5.675 
X6.675 Y6.675 
X6.675 Y-6.675 
X-6.675 Y-6.675 
X-6.675 Y6.675 
X6.675 Y6.675 
X7.675 Y7.675 
X7.675 Y-7.675 
X-7.675 Y-7.675 
X-7.675 Y7.675 
X7.675 Y7.675 
X8.675 Y8.675 
X8.675 Y-8.675 
X-8.675 Y-8.675 
X-8.675 Y8.675 
X8.675 Y8.675 
X9.675 Y9.675 
X9.675 Y-9.675 
X-9.675 Y-9.675 
X-9.675 Y9.675 
X9.675 Y9.675 
X10.675 Y10.675 
X10.675 Y-10.675 
X-10.675 Y-10.675 
X-10.675 Y10.675 
X10.675 Y10.675 
X11.675 Y11.675 
X11.675 Y-11.675 
X-11.675 Y-11.675 
X-11.675 Y11.675 
X11.675 Y11.675 
G00 Z5
X0.675 Y0.675
Z-2.5
G01 Z-5 F50
X0.675 Y-0.675 F100
X-0.675 Y-0.675 
X-0.675 Y0.675 
X0.675 Y0.675 
X1.675 Y1.675 
X1.675 Y-1.675 
X-1.675 Y-1.675 
X-1.675 Y1.675 
X1.675 Y1.675 
X2.675 Y2.675 
X2.675 Y-2.675 
X-2.675 Y-2.675 
X-2.675 Y2.675 
X2.675 Y2.675 
X3.675 Y3.675 
X3.675 Y-3.675 
X-3.675 Y-3.675 
X-3.675 Y3.675 
X3.675 Y3.675 
X4.675 Y4.675 
X4.675 Y-4.675 
X-4.675 Y-4.675 
X-4.675 Y4.675 
X4.675 Y4.675 
X5.675 Y5.675 
X5.675 Y-5.675 
X-5.675 Y-5.675 
X-5.675 Y5.675 
X5.675 Y5.675 
X6.675 Y6.675 
X6.675 Y-6.675 
X-6.675 Y-6.675 
X-6.675 Y6.675 
X6.675 Y6.675 
X7.675 Y7.675 
X7.675 Y-7.675 
X-7.675 Y-7.675 
X-7.675 Y7.675 
X7.675 Y7.675 
X8.675 Y8.675 
X8.675 Y-8.675 
X-8.675 Y-8.675 
X-8.675 Y8.675 
X8.675 Y8.675 
X9.675 Y9.675 
X9.675 Y-9.675 
X-9.675 Y-9.675 
X-9.675 Y9.675 
X9.675 Y9.675 
X10.675 Y10.675 
X10.675 Y-10.675 
X-10.675 Y-10.675 
X-10.675 Y10.675 
X10.675 Y10.675 
X11.675 Y11.675 
X11.675 Y-11.675 
X-11.675 Y-11.675 
X-11.675 Y11.675 
X11.675 Y11.675 
G00 Z5
X0.675 Y0.675
Z-3
G01 Z-5.5 F50
X0.675 Y-0.675 F100
X-0.675 Y-0.675 
X-0.675 Y0.675 
X0.675 Y0.675 
X1.675 Y1.675 
X1.675 Y-1.675 
X-1.675 Y-1.675 
X-1.675 Y1.675 
X1.675 Y1.675 
X2.675 Y2.675 
X2.675 Y-2.675 
X-2.675 Y-2.675 
X-2.675 Y2.675 
X2.675 Y2.675 
X3.675 Y3.675 
X3.675 Y-3.675 
X-3.675 Y-3.675 
X-3.675 Y3.675 
X3.675 Y3.675 
X4.675 Y4.675 
X4.675 Y-4.675 
X-4.675 Y-4.675 
X-4.675 Y4.675 
X4.675 Y4.675 
X5.675 Y5.675 
X5.675 Y-5.675 
X-5.675 Y-5.675 
X-5.675 Y5.675 
X5.675 Y5.675 
X6.675 Y6.675 
X6.675 Y-6.675 
X-6.675 Y-6.675 
X-6.675 Y6.675 
X6.675 Y6.675 
X7.675 Y7.675 
X7.675 Y-7.675 
X-7.675 Y-7.675 
X-7.675 Y7.675 
X7.675 Y7.675 
X8.675 Y8.675 
X8.675 Y-8.675 
X-8.675 Y-8.675 
X-8.675 Y8.675 
X8.675 Y8.675 
X9.675 Y9.675 
X9.675 Y-9.675 
X-9.675 Y-9.675 
X-9.675 Y9.675 
X9.675 Y9.675 
X10.675 Y10.675 
X10.675 Y-10.675 
X-10.675 Y-10.675 
X-10.675 Y10.675 
X10.675 Y10.675 
X11.675 Y11.675 
X11.675 Y-11.675 
X-11.675 Y-11.675 
X-11.675 Y11.675 
X11.675 Y11.675 
G00 Z5
X0.675 Y0.675
Z-3.5
G01 Z-6 F50
X0.675 Y-0.675 F100
X-0.675 Y-0.675 
X-0.675 Y0.675 
X0.675 Y0.675 
X1.675 Y1.675 
X1.675 Y-1.675 
X-1.675 Y-1.675 
X-1.675 Y1.675 
X1.675 Y1.675 
X2.675 Y2.675 
X2.675 Y-2.675 
X-2.675 Y-2.675 
X-2.675 Y2.675 
X2.675 Y2.675 
X3.675 Y3.675 
X3.675 Y-3.675 
X-3.675 Y-3.675 
X-3.675 Y3.675 
X3.675 Y3.675 
X4.675 Y4.675 
X4.675 Y-4.675 
X-4.675 Y-4.675 
X-4.675 Y4.675 
X4.675 Y4.675 
X5.675 Y5.675 
X5.675 Y-5.675 
X-5.675 Y-5.675 
X-5.675 Y5.675 
X5.675 Y5.675 
X6.675 Y6.675 
X6.675 Y-6.675 
X-6.675 Y-6.675 
X-6.675 Y6.675 
X6.675 Y6.675 
X7.675 Y7.675 
X7.675 Y-7.675 
X-7.675 Y-7.675 
X-7.675 Y7.675 
X7.675 Y7.675 
X8.675 Y8.675 
X8.675 Y-8.675 
X-8.675 Y-8.675 
X-8.675 Y8.675 
X8.675 Y8.675 
X9.675 Y9.675 
X9.675 Y-9.675 
X-9.675 Y-9.675 
X-9.675 Y9.675 
X9.675 Y9.675 
X10.675 Y10.675 
X10.675 Y-10.675 
X-10.675 Y-10.675 
X-10.675 Y10.675 
X10.675 Y10.675 
X11.675 Y11.675 
X11.675 Y-11.675 
X-11.675 Y-11.675 
X-11.675 Y11.675 
X11.675 Y11.675 
G00 Z5
X0.675 Y0.675
Z-4
G01 Z-6.5 F50
X0.675 Y-0.675 F100
X-0.675 Y-0.675 
X-0.675 Y0.675 
X0.675 Y0.675 
X1.675 Y1.675 
X1.675 Y-1.675 
X-1.675 Y-1.675 
X-1.675 Y1.675 
X1.675 Y1.675 
X2.675 Y2.675 
X2.675 Y-2.675 
X-2.675 Y-2.675 
X-2.675 Y2.675 
X2.675 Y2.675 
X3.675 Y3.675 
X3.675 Y-3.675 
X-3.675 Y-3.675 
X-3.675 Y3.675 
X3.675 Y3.675 
X4.675 Y4.675 
X4.675 Y-4.675 
X-4.675 Y-4.675 
X-4.675 Y4.675 
X4.675 Y4.675 
X5.675 Y5.675 
X5.675 Y-5.675 
X-5.675 Y-5.675 
X-5.675 Y5.675 
X5.675 Y5.675 
X6.675 Y6.675 
X6.675 Y-6.675 
X-6.675 Y-6.675 
X-6.675 Y6.675 
X6.675 Y6.675 
X7.675 Y7.675 
X7.675 Y-7.675 
X-7.675 Y-7.675 
X-7.675 Y7.675 
X7.675 Y7.675 
X8.675 Y8.675 
X8.675 Y-8.675 
X-8.675 Y-8.675 
X-8.675 Y8.675 
X8.675 Y8.675 
X9.675 Y9.675 
X9.675 Y-9.675 
X-9.675 Y-9.675 
X-9.675 Y9.675 
X9.675 Y9.675 
X10.675 Y10.675 
X10.675 Y-10.675 
X-10.675 Y-10.675 
X-10.675 Y10.675 
X10.675 Y10.675 
X11.675 Y11.675 
X11.675 Y-11.675 
X-11.675 Y-11.675 
X-11.675 Y11.675 
X11.675 Y11.675 
G00 Z5
X0.675 Y0.675
Z-4.5
G01 Z-7 F50
X0.675 Y-0.675 F100
X-0.675 Y-0.675 
X-0.675 Y0.675 
X0.675 Y0.675 
X1.675 Y1.675 
X1.675 Y-1.675 
X-1.675 Y-1.675 
X-1.675 Y1.675 
X1.675 Y1.675 
X2.675 Y2.675 
X2.675 Y-2.675 
X-2.675 Y-2.675 
X-2.675 Y2.675 
X2.675 Y2.675 
X3.675 Y3.675 
X3.675 Y-3.675 
X-3.675 Y-3.675 
X-3.675 Y3.675 
X3.675 Y3.675 
X4.675 Y4.675 
X4.675 Y-4.675 
X-4.675 Y-4.675 
X-4.675 Y4.675 
X4.675 Y4.675 
X5.675 Y5.675 
X5.675 Y-5.675 
X-5.675 Y-5.675 
X-5.675 Y5.675 
X5.675 Y5.675 
X6.675 Y6.675 
X6.675 Y-6.675 
X-6.675 Y-6.675 
X-6.675 Y6.675 
X6.675 Y6.675 
X7.675 Y7.675 
X7.675 Y-7.675 
X-7.675 Y-7.675 
X-7.675 Y7.675 
X7.675 Y7.675 
X8.675 Y8.675 
X8.675 Y-8.675 
X-8.675 Y-8.675 
X-8.675 Y8.675 
X8.675 Y8.675 
X9.675 Y9.675 
X9.675 Y-9.675 
X-9.675 Y-9.675 
X-9.675 Y9.675 
X9.675 Y9.675 
X10.675 Y10.675 
X10.675 Y-10.675 
X-10.675 Y-10.675 
X-10.675 Y10.675 
X10.675 Y10.675 
X11.675 Y11.675 
X11.675 Y-11.675 
X-11.675 Y-11.675 
X-11.675 Y11.675 
X11.675 Y11.675 
G00 Z5
(innerSketch)
X9.775 Y0 S7000 M03
Z2
G01 Z-7 F50
G02 X11.775 Y0 I1 J0 F100
G01 X11.775 Y-11.775 
X-11.775 Y-11.775 
X-11.775 Y11.775 
X11.775 Y11.775 
X11.775 Y0 
G02 X9.775 Y0 I-1 J0 
G00 Z5
G90
(innerSketch)
X9.875 Y0
Z2
G01 Z-7 F50
G02 X11.875 Y0 I1 J0 
G01 X11.875 Y-11.875 
X-11.875 Y-11.875 
X-11.875 Y11.875 
X11.875 Y11.875 
X11.875 Y0 
G02 X9.875 Y0 I-1 J0 
G00 Z5
G90
(outerSketch)
X0 Y24.275 S7000 M03
Z2
G01 Z-0.5 
G02 X0 Y22.275 I0 J-1 F100
G01 X-17 Y22.275 Z-0.5 
G03 X-22.275 Y17 Z-0.5 I0 J-5.275 
G01 X-22.275 Y-17 Z-0.5 
G03 X-17 Y-22.275 Z-0.5 I5.275 J0 
G01 X17 Y-22.275 Z-0.5 
G03 X22.275 Y-17 Z-0.5 I0 J5.275 
G01 X22.275 Y17 Z-0.5 
G03 X17 Y22.275 Z-0.5 I-5.275 J0 
G01 X0 Y22.275 Z-0.5 
G02 X0 Y24.275 I0 J1 
G01 Z-1 F50
G02 X0 Y22.275 I0 J-1 F100
G01 X-17 Y22.275 Z-1 
G03 X-22.275 Y17 Z-1 I0 J-5.275 
G01 X-22.275 Y-17 Z-1 
G03 X-17 Y-22.275 Z-1 I5.275 J0 
G01 X17 Y-22.275 Z-1 
G03 X22.275 Y-17 Z-1 I0 J5.275 
G01 X22.275 Y17 Z-1 
G03 X17 Y22.275 Z-1 I-5.275 J0 
G01 X0 Y22.275 Z-1 
G02 X0 Y24.275 I0 J1 
G01 Z-1.5 F50
G02 X0 Y22.275 I0 J-1 F100
G01 X-17 Y22.275 Z-1.5 
G03 X-22.275 Y17 Z-1.5 I0 J-5.275 
G01 X-22.275 Y-17 Z-1.5 
G03 X-17 Y-22.275 Z-1.5 I5.275 J0 
G01 X17 Y-22.275 Z-1.5 
G03 X22.275 Y-17 Z-1.5 I0 J5.275 
G01 X22.275 Y17 Z-1.5 
G03 X17 Y22.275 Z-1.5 I-5.275 J0 
G01 X0 Y22.275 Z-1.5 
G02 X0 Y24.275 I0 J1 
G01 Z-2 F50
G02 X0 Y22.275 I0 J-1 F100
G01 X-17 Y22.275 Z-2 
G03 X-22.275 Y17 Z-2 I0 J-5.275 
G01 X-22.275 Y-17 Z-2 
G03 X-17 Y-22.275 Z-2 I5.275 J0 
G01 X17 Y-22.275 Z-2 
G03 X22.275 Y-17 Z-2 I0 J5.275 
G01 X22.275 Y17 Z-2 
G03 X17 Y22.275 Z-2 I-5.275 J0 
G01 X0 Y22.275 Z-2 
G02 X0 Y24.275 I0 J1 
G01 Z-2.5 F50
G02 X0 Y22.275 I0 J-1 F100
G01 X-17 Y22.275 Z-2.5 
G03 X-22.275 Y17 Z-2.5 I0 J-5.275 
G01 X-22.275 Y-17 Z-2.5 
G03 X-17 Y-22.275 Z-2.5 I5.275 J0 
G01 X17 Y-22.275 Z-2.5 
G03 X22.275 Y-17 Z-2.5 I0 J5.275 
G01 X22.275 Y17 Z-2.5 
G03 X17 Y22.275 Z-2.5 I-5.275 J0 
G01 X0 Y22.275 Z-2.5 
G02 X0 Y24.275 I0 J1 
G01 Z-3 F50
G02 X0 Y22.275 I0 J-1 F100
G01 X-17 Y22.275 Z-3 
G03 X-22.275 Y17 Z-3 I0 J-5.275 
G01 X-22.275 Y-17 Z-3 
G03 X-17 Y-22.275 Z-3 I5.275 J0 
G01 X17 Y-22.275 Z-3 
G03 X22.275 Y-17 Z-3 I0 J5.275 
G01 X22.275 Y17 Z-3 
G03 X17 Y22.275 Z-3 I-5.275 J0 
G01 X0 Y22.275 Z-3 
G02 X0 Y24.275 I0 J1 
G01 Z-3.5 F50
G02 X0 Y22.275 I0 J-1 F100
G01 X-17 Y22.275 Z-3.5 
G03 X-22.275 Y17 Z-3.5 I0 J-5.275 
G01 X-22.275 Y-17 Z-3.5 
G03 X-17 Y-22.275 Z-3.5 I5.275 J0 
G01 X17 Y-22.275 Z-3.5 
G03 X22.275 Y-17 Z-3.5 I0 J5.275 
G01 X22.275 Y17 Z-3.5 
G03 X17 Y22.275 Z-3.5 I-5.275 J0 
G01 X0 Y22.275 Z-3.5 
G02 X0 Y24.275 I0 J1 
G01 Z-4 F50
G02 X0 Y22.275 I0 J-1 F100
G01 X-17 Y22.275 Z-4 
G03 X-22.275 Y17 Z-4 I0 J-5.275 
G01 X-22.275 Y-17 Z-4 
G03 X-17 Y-22.275 Z-4 I5.275 J0 
G01 X17 Y-22.275 Z-4 
G03 X22.275 Y-17 Z-4 I0 J5.275 
G01 X22.275 Y17 Z-4 
G03 X17 Y22.275 Z-4 I-5.275 J0 
G01 X0 Y22.275 Z-4 
G02 X0 Y24.275 I0 J1 
G01 Z-4.5 F50
G02 X0 Y22.275 I0 J-1 F100
G01 X-17 Y22.275 Z-4.5 
G03 X-22.275 Y17 Z-4.5 I0 J-5.275 
G01 X-22.275 Y-17 Z-4.5 
G03 X-17 Y-22.275 Z-4.5 I5.275 J0 
G01 X17 Y-22.275 Z-4.5 
G03 X22.275 Y-17 Z-4.5 I0 J5.275 
G01 X22.275 Y17 Z-4.5 
G03 X17 Y22.275 Z-4.5 I-5.275 J0 
G01 X0 Y22.275 Z-4.5 
G02 X0 Y24.275 I0 J1 
G01 Z-5 F50
G02 X0 Y22.275 I0 J-1 F100
G01 X-17 Y22.275 Z-5 
G03 X-22.275 Y17 Z-5 I0 J-5.275 
G01 X-22.275 Y-17 Z-5 
G03 X-17 Y-22.275 Z-5 I5.275 J0 
G01 X17 Y-22.275 Z-5 
G03 X22.275 Y-17 Z-5 I0 J5.275 
G01 X22.275 Y17 Z-5 
G03 X17 Y22.275 Z-5 I-5.275 J0 
G01 X0 Y22.275 Z-5 
G02 X0 Y24.275 I0 J1 
G01 Z-5.5 F50
G02 X0 Y22.275 I0 J-1 F100
G01 X-17 Y22.275 Z-5.5 
G03 X-22.275 Y17 Z-5.5 I0 J-5.275 
G01 X-22.275 Y-17 Z-5.5 
G03 X-17 Y-22.275 Z-5.5 I5.275 J0 
G01 X17 Y-22.275 Z-5.5 
G03 X22.275 Y-17 Z-5.5 I0 J5.275 
G01 X22.275 Y17 Z-5.5 
G03 X17 Y22.275 Z-5.5 I-5.275 J0 
G01 X0 Y22.275 Z-5.5 
G02 X0 Y24.275 I0 J1 
G01 Z-6 F50
G02 X0 Y22.275 I0 J-1 F100
G01 X-17 Y22.275 Z-6 
G03 X-22.275 Y17 Z-6 I0 J-5.275 
G01 X-22.275 Y-17 Z-6 
G03 X-17 Y-22.275 Z-6 I5.275 J0 
G01 X17 Y-22.275 Z-6 
G03 X22.275 Y-17 Z-6 I0 J5.275 
G01 X22.275 Y17 Z-6 
G03 X17 Y22.275 Z-6 I-5.275 J0 
G01 X0 Y22.275 Z-6 
G02 X0 Y24.275 I0 J1 
X0 Y22.275 I0 J-1 
G01 X-4.175 Y22.275 Z-6 
X-4.675 Y22.275 Z-6.5 
X-17 Y22.275 Z-6.5 
G03 X-22.275 Y17 Z-6.5 I0 J-5.275 
G01 X-22.275 Y4.675 Z-6.5 
X-22.275 Y4.175 Z-6 
X-22.275 Y-4.175 Z-6 
X-22.275 Y-4.675 Z-6.5 
X-22.275 Y-17 Z-6.5 
G03 X-17 Y-22.275 Z-6.5 I5.275 J0 
G01 X-4.675 Y-22.275 Z-6.5 
X-4.175 Y-22.275 Z-6 
X4.175 Y-22.275 Z-6 
X4.675 Y-22.275 Z-6.5 
X17 Y-22.275 Z-6.5 
G03 X22.275 Y-17 Z-6.5 I0 J5.275 
G01 X22.275 Y-5.675 Z-6.5 
X22.275 Y-5.175 Z-6 
X22.275 Y3.175 Z-6 
X22.275 Y3.675 Z-6.5 
X22.275 Y17 Z-6.5 
G03 X17 Y22.275 Z-6.5 I-5.275 J0 
G01 X4.675 Y22.275 Z-6.5 
X4.175 Y22.275 Z-6 
X0 Y22.275 Z-6 
G02 X0 Y24.275 I0 J1 
X0 Y22.275 I0 J-1 
G01 X-4.175 Y22.275 Z-6 
X-5.174 Y22.275 Z-7 
X-17 Y22.275 Z-7 
G03 X-22.275 Y17 Z-7 I0 J-5.275 
G01 X-22.275 Y5.174 Z-7 
X-22.275 Y4.175 Z-6 
X-22.275 Y-4.175 Z-6 
X-22.275 Y-5.174 Z-7 
X-22.275 Y-17 Z-7 
G03 X-17 Y-22.275 Z-7 I5.275 J0 
G01 X-5.174 Y-22.275 Z-7 
X-4.175 Y-22.275 Z-6 
X4.175 Y-22.275 Z-6 
X5.174 Y-22.275 Z-7 
X17 Y-22.275 Z-7 
G03 X22.275 Y-17 Z-7 I0 J5.275 
G01 X22.275 Y-6.174 Z-7 
X22.275 Y-5.175 Z-6 
X22.275 Y3.175 Z-6 
X22.275 Y4.174 Z-7 
X22.275 Y17 Z-7 
G03 X17 Y22.275 Z-7 I-5.275 J0 
G01 X5.174 Y22.275 Z-7 
X4.175 Y22.275 Z-6 
X0 Y22.275 Z-6 
G02 X0 Y24.275 I0 J1 
G00 Z5
G90
(outerSketch)
X0 Y24.175
Z2
G01 Z-6 F50
G02 X0 Y22.175 I0 J-1 
G01 X-4.175 Y22.175 Z-6 
X-5.174 Y22.175 Z-7 
X-17 Y22.175 Z-7 
G03 X-22.175 Y17 Z-7 I0 J-5.175 
G01 X-22.175 Y5.174 Z-7 
X-22.175 Y4.175 Z-6 
X-22.175 Y-4.175 Z-6 
X-22.175 Y-5.174 Z-7 
X-22.175 Y-17 Z-7 
G03 X-17 Y-22.175 Z-7 I5.175 J0 
G01 X-5.174 Y-22.175 Z-7 
X-4.175 Y-22.175 Z-6 
X4.175 Y-22.175 Z-6 
X5.174 Y-22.175 Z-7 
X17 Y-22.175 Z-7 
G03 X22.175 Y-17 Z-7 I0 J5.175 
G01 X22.175 Y-6.174 Z-7 
X22.175 Y-5.175 Z-6 
X22.175 Y3.175 Z-6 
X22.175 Y4.174 Z-7 
X22.175 Y17 Z-7 
G03 X17 Y22.175 Z-7 I-5.175 J0 
G01 X5.174 Y22.175 Z-7 
X4.175 Y22.175 Z-6 
X0 Y22.175 Z-6 
G02 X0 Y24.175 I0 J1 
G00 Z5
T0 M06 M05
